Dominus_Funeral/22/apps/orca.svg

<svg xmlns="http://www.w3.org/2000/svg" width="24" height="24" viewBox="0 0 6.35 6.35"><defs><linearGradient id="c"><stop offset="0" stop-color="#1a1a1a"/><stop offset="1" stop-color="#4d4d4d"/></linearGradient><linearGradient id="b"><stop offset="0" stop-color="#00000b"/><stop offset="1" stop-opacity=".03"/></linearGradient><linearGradient id="a"><stop offset="0" stop-color="#788492"/><stop offset="1" stop-color="#fafafa"/></linearGradient></defs><path d="M5.14 1.13c-.47 0-.94.1-1.4.29-.23.1-.44.22-.6.27C1.8 1.5.32 2.31.17 3.74c-.01.11 0 .39.07.43a5.69 5.69 0 0 0 2.16-.13c.18.13.47.24 1.03.26.22-.06.08-.29-.15-.53.85-.2 1.22.26 1.35.33.23.14-.48.53-.43.85.03.18.12.27.12.27.2-.4.81-.24.78-.66.46.2.56-.11 1.1-.05-.08-.08-.17-.2-.38-.27-.23-.07-.62-.06-.71-.27-.02-.24-.02-1.5-.8-1.89-.12-.17 0-.4.23-.57.2-.15.5-.29.61-.38zM1.51 2.55a.1.1 0 0 1 .07 0c.1.14-.3.66-.5.5-.08-.12.25-.48.43-.5zm2.78.39c.17 0 .3.03.33.1.06.15-1.16.16-.2.59.24.14.24.36.22.34-.2-.18-.63-.56-1.46-.29-.11-.1-.22-.2-.33-.28.18-.1.37-.27.73-.4.1-.02.44-.07.71-.06zm-2.4.56v.02c.19.05.22.23.38.41-.28.07-.59.13-.99.12-.05-.08-.38.06.21-.36a.52.52 0 0 1 .4-.2z" fill="#1a1a1a" fill-rule="evenodd"/></svg>

<?xml version="1.0" encoding="UTF-8" standalone="no"?>
<svg
   xmlns:dc="http://purl.org/dc/elements/1.1/"
   xmlns:cc="http://creativecommons.org/ns#"
   xmlns:rdf="http://www.w3.org/1999/02/22-rdf-syntax-ns#"
   xmlns:svg="http://www.w3.org/2000/svg"
   xmlns="http://www.w3.org/2000/svg"
   xmlns:sodipodi="http://sodipodi.sourceforge.net/DTD/sodipodi-0.dtd"
   xmlns:inkscape="http://www.inkscape.org/namespaces/inkscape"
   width="24"
   height="24"
   viewBox="0 0 6.35 6.35"
   version="1.1"
   id="svg21"
   sodipodi:docname="orca.svg"
   inkscape:version="0.92.4 (5da689c313, 2019-01-14)">
  <metadata
     id="metadata25">
    <rdf:RDF>
      <cc:Work
         rdf:about="">
        <dc:format>image/svg+xml</dc:format>
        <dc:type
           rdf:resource="http://purl.org/dc/dcmitype/StillImage" />
        <dc:title></dc:title>
      </cc:Work>
    </rdf:RDF>
  </metadata>
  <sodipodi:namedview
     pagecolor="#ffffff"
     bordercolor="#666666"
     borderopacity="1"
     objecttolerance="10"
     gridtolerance="10"
     guidetolerance="10"
     inkscape:pageopacity="0"
     inkscape:pageshadow="2"
     inkscape:window-width="1138"
     inkscape:window-height="480"
     id="namedview23"
     showgrid="false"
     inkscape:zoom="9.8333333"
     inkscape:cx="1.0677966"
     inkscape:cy="12"
     inkscape:window-x="0"
     inkscape:window-y="25"
     inkscape:window-maximized="0"
     inkscape:current-layer="svg21" />
  <defs
     id="defs17">
    <linearGradient
       id="c">
      <stop
         offset="0"
         stop-color="#1a1a1a"
         id="stop2" />
      <stop
         offset="1"
         stop-color="#4d4d4d"
         id="stop4" />
    </linearGradient>
    <linearGradient
       id="b">
      <stop
         offset="0"
         stop-color="#00000b"
         id="stop7" />
      <stop
         offset="1"
         stop-opacity=".03"
         id="stop9" />
    </linearGradient>
    <linearGradient
       id="a">
      <stop
         offset="0"
         stop-color="#788492"
         id="stop12" />
      <stop
         offset="1"
         stop-color="#fafafa"
         id="stop14" />
    </linearGradient>
  </defs>
  <path
     d="M 5.14,1.13 C 4.67,1.13 4.2,1.23 3.74,1.42 3.51,1.52 3.3,1.64 3.14,1.69 1.8,1.5 0.32,2.31 0.17,3.74 0.16,3.85 0.17,4.13 0.24,4.17 A 5.69,5.69 0 0 0 2.4,4.04 C 2.58,4.17 2.87,4.28 3.43,4.3 3.65,4.24 3.51,4.01 3.28,3.77 4.13,3.57 4.5,4.03 4.63,4.1 4.86,4.24 4.15,4.63 4.2,4.95 4.23,5.13 4.32,5.22 4.32,5.22 4.52,4.82 5.13,4.98 5.1,4.56 5.56,4.76 5.66,4.45 6.2,4.51 6.12,4.43 6.03,4.31 5.82,4.24 5.59,4.17 5.2,4.18 5.11,3.97 5.09,3.73 5.09,2.47 4.31,2.08 4.19,1.91 4.31,1.68 4.54,1.51 4.74,1.36 5.04,1.22 5.15,1.13 Z M 1.51,2.55 a 0.1,0.1 0 0 1 0.07,0 C 1.68,2.69 1.28,3.21 1.08,3.05 1,2.93 1.33,2.57 1.51,2.55 Z m 2.78,0.39 c 0.17,0 0.3,0.03 0.33,0.1 C 4.68,3.19 3.46,3.2 4.42,3.63 4.66,3.77 4.66,3.99 4.64,3.97 4.44,3.79 4.01,3.41 3.18,3.68 3.07,3.58 2.96,3.48 2.85,3.4 3.03,3.3 3.22,3.13 3.58,3 3.68,2.98 4.02,2.93 4.29,2.94 Z M 1.89,3.5 V 3.52 C 2.08,3.57 2.11,3.75 2.27,3.93 1.99,4 1.68,4.06 1.28,4.05 1.23,3.97 0.9,4.11 1.49,3.69 a 0.52,0.52 0 0 1 0.4,-0.2 z"
     id="path19"
     inkscape:connector-curvature="0"
     style="fill:#1a1a1a;fill-rule:evenodd" />
</svg>
